X: 21031
M: 2/4
L: 1/16
K: Bb
V: 1 name="4"
z2 |\
d2(3(dcB) F2F2 | d2(3(dcB) g4 | g>fg>f d>df>d | c>cf>c B2F2 |\
d2(3(dcB) F2F2 | d2(3(dcB) g4 | g>fg>f d>df>e | c>ce>d B2 H|]
cdc=B cdc_B | (3(Acf) a2 f4 | g>fg2 f>cf2 | g>fg2 a4 |\
c>dc>=B c>dc>_B | (3(Acf) a2 f4 | g>fg2 f>cf2 | a2g2 "^D.C."f2 |]
c2 |\
f2(3(fff) f2e2 | d2c2 B2cd | d2(3(ddd) d2c2 | B2A2 G>AB2 |\
cd=ef g2e2 | f=efa c2c2 | cd=ef g2e2 | f2a2"^D.C."f2 |]


